seregacthtuf/armor-blueprint.svg

<?xml version="1.0" encoding="UTF-8" standalone="no"?>
<!-- Generator: Adobe Illustrator 28.1.0, SVG Export Plug-In . SVG Version: 6.00 Build 0)  -->

<svg
   version="1.1"
   id="Слой_1"
   x="0px"
   y="0px"
   viewBox="0 0 512 512"
   style="enable-background:new 0 0 512 512;"
   xml:space="preserve"
   sodipodi:docname="armor-blueprint.svg"
   inkscape:version="1.4 (86a8ad7, 2024-10-11)"
   xmlns:inkscape="http://www.inkscape.org/namespaces/inkscape"
   xmlns:sodipodi="http://sodipodi.sourceforge.net/DTD/sodipodi-0.dtd"
   xmlns="http://www.w3.org/2000/svg"
   xmlns:svg="http://www.w3.org/2000/svg"><defs
   id="defs7">
		
	
		
	
		
	
		
		
	
		
	
		
		
		
	</defs>
<style
   type="text/css"
   id="style1">
	.st0{fill:#FFFFFF;}
</style>
<sodipodi:namedview
   bordercolor="#000000"
   borderopacity="0.25"
   id="namedview2"
   inkscape:current-layer="Слой_1"
   inkscape:cx="279.30717"
   inkscape:cy="250.66935"
   inkscape:deskcolor="#d1d1d1"
   inkscape:pagecheckerboard="true"
   inkscape:pageopacity="0.0"
   inkscape:showpageshadow="2"
   inkscape:window-height="1001"
   inkscape:window-maximized="1"
   inkscape:window-width="1920"
   inkscape:window-x="-9"
   inkscape:window-y="-9"
   inkscape:zoom="1.4142136"
   pagecolor="#585858">
	</sodipodi:namedview>
<path
   d="M 0,0 H 512 V 512 H 0 Z"
   fill="#000000"
   fill-opacity="1"
   id="path1-5"
   inkscape:label="path1" /><g
   id="g16">
	<path
   id="path47"
   class="st0"
   d="M 418.69922 88.599609 C 389.09922 88.599609 364.40039 110.40078 359.90039 138.80078 L 33.900391 138.80078 L 33.900391 423.30078 L 368.5 423.30078 L 418.69922 423.30078 C 451.49922 423.30078 478.30078 396.49922 478.30078 363.69922 L 478.30078 148.19922 C 478.20078 115.39922 451.39922 88.599609 418.69922 88.599609 z M 52.5 157.5 L 359.09961 157.5 L 359.09961 363.69922 L 368.40039 363.69922 L 377.69922 363.69922 C 377.69922 362.29922 377.80039 360.9 377.90039 359.5 C 380.00039 338.8 397.29961 322.80078 418.59961 322.80078 C 441.29961 322.80078 459.5 340.99922 459.5 363.69922 C 459.5 386.39922 441.29961 404.59961 418.59961 404.59961 L 368.40039 404.59961 L 52.5 404.59961 L 52.5 157.5 z M 320.90039 173.19922 L 320.90039 192.59961 L 338.90039 192.59961 L 338.90039 173.19922 L 320.90039 173.19922 z M 241.80078 192 C 222.60078 200.6 200.5 203.20078 181.5 192.80078 L 181.5 208.40039 C 201.3 217.80039 221.90078 217.29922 241.80078 208.19922 L 241.80078 192 z M 267.43164 195.00391 C 265.20391 194.99453 262.9 195.06172 260.5 195.19922 C 259.9 203.69922 258.19922 211.99961 255.69922 220.09961 L 255.59961 220.09961 C 255.49961 220.39961 255.40078 220.79961 255.30078 221.09961 C 271.30078 236.49961 294.79922 240.99961 316.19922 236.59961 C 316.39922 224.29961 314.99922 214.89961 309.19922 208.59961 C 294.84922 198.88711 283.02578 195.06953 267.43164 195.00391 z M 158.41797 195.07422 C 133.29407 195.1394 105.72461 205.84961 107.59961 236.59961 C 128.49961 240.39961 153.3 236.09961 168.5 221.09961 C 168.2 220.39961 168.00039 219.79922 167.90039 219.19922 C 167.80039 219.19922 167.69961 219.1 167.59961 219 C 165.99961 211.1 163.70039 203.29922 163.40039 195.19922 C 161.75664 195.11172 160.0929 195.06987 158.41797 195.07422 z M 185.19922 227 C 176.09922 236.8 167.30039 243.50039 152.90039 248.90039 C 148.10039 282.60039 178.30039 314 210.90039 320 C 240.30039 315.7 269.80078 287.30078 269.80078 256.30078 C 269.80078 253.70078 269.59922 251.09961 269.19922 248.59961 C 256.69922 244.39961 247.19922 234.59922 236.19922 227.69922 L 236.30078 227.30078 C 219.80078 232.90078 201.59922 233 185.19922 227 z M 71.400391 256.30078 L 71.400391 285.09961 L 94.199219 285.09961 L 94.199219 267.09961 L 89.400391 267.09961 L 89.400391 256.30078 L 71.400391 256.30078 z M 114.69922 267.09961 L 114.69922 285.09961 L 133.40039 285.09961 L 133.40039 267.09961 L 114.69922 267.09961 z M 278.59961 289 L 278.59961 307 L 292.40039 307 L 292.40039 289 L 278.59961 289 z M 310.80078 289 L 310.80078 307 L 320.90039 307 L 320.90039 347.09961 L 338.90039 347.09961 L 338.90039 289 L 310.80078 289 z M 260.80078 311.30078 C 251.20078 320.70078 239.6 328.00078 227.5 332.30078 C 236.3 342.70078 242.39922 356.9 245.69922 370 C 261.59922 368.5 275.19922 361.80078 287.69922 349.80078 C 280.09922 336.20078 271.90078 322.40078 260.80078 311.30078 z M 162.19922 311.5 C 150.99922 322.3 143.09922 335.99961 135.69922 349.59961 C 148.09922 361.59961 161.79922 368.30078 177.69922 369.80078 C 180.19922 361.50078 183.79961 348.90078 189.09961 341.80078 C 191.09961 338.70078 193.20039 335.59922 195.40039 332.69922 C 181.10039 327.49922 168.49922 317.3 162.19922 311.5 z M 71.5 335.69922 L 71.5 353.69922 L 115.69922 353.69922 L 115.69922 335.69922 L 71.5 335.69922 z M 320.90039 365.19922 L 320.90039 384.59961 L 338.90039 384.59961 L 338.90039 365.19922 L 320.90039 365.19922 z "
   inkscape:label="path4" />
	
	
	
	
	
	
	
	
	
	
	
	
	
</g>
</svg>

<?xml version="1.0" encoding="UTF-8" standalone="no"?>
<!-- Generator: Adobe Illustrator 28.1.0, SVG Export Plug-In . SVG Version: 6.00 Build 0)  -->

<svg
   version="1.1"
   id="Слой_1"
   x="0px"
   y="0px"
   viewBox="0 0 512 512"
   style="enable-background:new 0 0 512 512;"
   xml:space="preserve"
   sodipodi:docname="armor-blueprint.svg"
   inkscape:version="1.4 (86a8ad7, 2024-10-11)"
   xmlns:inkscape="http://www.inkscape.org/namespaces/inkscape"
   xmlns:sodipodi="http://sodipodi.sourceforge.net/DTD/sodipodi-0.dtd"
   xmlns="http://www.w3.org/2000/svg"
   xmlns:svg="http://www.w3.org/2000/svg"><defs
   id="defs7">
		
	
		
	
		
	
		
		
	
		
	
		
		
		
	</defs>
<style
   type="text/css"
   id="style1">
	.st0{fill:#FFFFFF;}
</style>
<sodipodi:namedview
   bordercolor="#000000"
   borderopacity="0.25"
   id="namedview2"
   inkscape:current-layer="g16"
   inkscape:cx="278.60007"
   inkscape:cy="250.66936"
   inkscape:deskcolor="#d1d1d1"
   inkscape:pagecheckerboard="true"
   inkscape:pageopacity="0.0"
   inkscape:showpageshadow="2"
   inkscape:window-height="1001"
   inkscape:window-maximized="1"
   inkscape:window-width="1920"
   inkscape:window-x="-9"
   inkscape:window-y="-9"
   inkscape:zoom="1.4142136"
   pagecolor="#585858">
	</sodipodi:namedview>
<g
   id="g16">
	<path
   id="path47"
   class="st0"
   d="M418.7,88.6c-29.6,0-54.3,21.8-58.8,50.2h-326v284.5h334.6h50.2c32.8,0,59.6-26.8,59.6-59.6V148.2   C478.2,115.4,451.4,88.6,418.7,88.6L418.7,88.6z M52.5,157.5h306.6v206.2h9.3h9.3c0-1.4,0.1-2.8,0.2-4.2   c2.1-20.7,19.4-36.7,40.7-36.7c22.7,0,40.9,18.2,40.9,40.9c0,22.7-18.2,40.9-40.9,40.9h-50.2H52.5L52.5,157.5z" />
	<path
   class="st0"
   d="m 241.8,192 v 16.2 c -19.9,9.1 -40.5,9.6 -60.3,0.2 v -15.6 c 19,10.4 41.1,7.8 60.3,-0.8 z"
   id="path1" />
	<path
   id="path15"
   class="st0"
   d="M114.7,267.1v18h18.7v-18H114.7z" />
	<path
   id="path10"
   class="st0"
   d="M71.4,256.3v28.8h22.8v-18h-4.8v-10.8H71.4z" />
	<path
   id="path14"
   class="st0"
   d="M320.9,365.2v19.4h18v-19.4H320.9z" />
	<path
   id="path13"
   class="st0"
   d="M310.8,289v18h10.1v40.1h18V289H310.8z" />
	<path
   id="path11"
   class="st0"
   d="M278.6,289v18h13.8v-18H278.6z" />
	<path
   id="path12"
   class="st0"
   d="M71.5,335.7v18h44.2v-18H71.5z" />
	<path
   id="path16"
   class="st0"
   d="M320.9,173.2v19.4h18v-19.4H320.9z" />
	<path
   class="st0"
   d="m 287.7,349.8 c -12.5,12 -26.1,18.7 -42,20.2 -3.3,-13.1 -9.4,-27.3 -18.2,-37.7 12.1,-4.3 23.7,-11.6 33.3,-21 11.1,11.1 19.3,24.9 26.9,38.5 z"
   id="path2" />
	<path
   class="st0"
   d="m 195.4,332.7 c -2.2,2.9 -4.3,6 -6.3,9.1 -5.3,7.1 -8.9,19.7 -11.4,28 -15.9,-1.5 -29.6,-8.2 -42,-20.2 7.4,-13.6 15.3,-27.3 26.5,-38.1 6.3,5.8 18.9,16 33.2,21.2 z"
   id="path3" />
	<path
   class="st0"
   d="m 269.8,256.3 c 0,31 -29.5,59.4 -58.9,63.7 -32.6,-6 -62.8,-37.4 -58,-71.1 14.4,-5.4 23.2,-12.1 32.3,-21.9 16.4,6 34.6,5.9 51.1,0.3 l -0.1,0.4 c 11,6.9 20.5,16.7 33,20.9 0.4,2.5 0.6,5.1 0.6,7.7 z"
   id="path4" />
	<path
   class="st0"
   d="m 168.5,221.1 c -15.2,15 -40,19.3 -60.9,15.5 -2,-32.8 29.5,-42.8 55.8,-41.4 0.3,8.1 2.6,15.9 4.2,23.8 0.1,0.1 0.2,0.2 0.3,0.2 0.1,0.6 0.3,1.2 0.6,1.9 z"
   id="path5" />
	<path
   class="st0"
   d="m 316.2,236.6 c -21.4,4.4 -44.9,-0.1 -60.9,-15.5 0.1,-0.3 0.2,-0.7 0.3,-1 h 0.1 c 2.5,-8.1 4.2,-16.4 4.8,-24.9 19.2,-1.1 32.3,2.3 48.7,13.4 5.8,6.3 7.2,15.7 7,28 z"
   id="path7" />
</g>
</svg>
